X:1
T:Title
%%score { ( 1 3 ) | ( 2 4 ) }
L:1/8
Q:1/4=120
M:3/4
K:C
V:1 treble nm="Grand Piano"
V:3 treble 
V:2 bass 
V:4 bass 
V:1
 A2 A2 A2 | [Ec]3 [Ed] [Ec]2 | F6 | _B6 | [EA]2 [EG]2 [CF]2 | [Ed]3 [Ec] [EG]2 | A6- | A4 z2 | %8
w: Franz~Abt * *||||||||
 G2 [GA]2 [GB]2 | c2 d2 c2 | [Ff]6 | [DFA]6 | [DFG]2 [DFB]2 [DFc]2 | d2 c2 d2 | e6 | E6 | %16
w: ||||||||
 [Ec]2 [Ec]2 [Ec]2 | c2 B2 A2 | G6 | E6 | F2 G2 A2 | f2 A2 B2 | [CEc]6- | [CEc]4 z2 | c2 G2 A2 | %25
w: |||||||||
 _B2 A2 G2 | F2 f2 d2 | c6 | [Ec]2 [EG]2 [^FA]2 | [G_B]2 [EA]2 [EG]2 | z A, f2 [^Gd]2 | [Ac]6 | %32
w: |||||||
 [Fc]2 [Fc]2 [Fc]2 | dc _BA [FG]F | F2 z2 z2 | z6 | .[CFc]2 [FB]2 [Fc]2 | %37
w: |||||
[M:7/8] [Ed]2 [EG]2 [Ec]3 |[M:3/4] [CF]6- | [CF]6 |] %40
w: |||
V:2
 [F,CF]2 [F,CF]2 [F,CF]2 | [C,_B,]3 [C,B,] [C,B,]2 | [C,A,]6 | [G,,G,]6 | %4
 [C,_B,]2 [C,B,]2 [C,A,]2 | [C,G,]3 [C,G,] [C,C]2 | [F,CF]6- | [F,CF]4 z2 | [E,C]2 [E,C]2 [E,C]2 | %9
 [A,CA]2 [A,CA]2 [A,CA]2 | [D,D]6 | C,6 | B,,2 B,,2 B,,2 | [G,B,F]2 [G,B,F]2 [G,B,F]2 | [E,^G,E]6 | %15
 [E,G,]6 | [A,,A,]2 [A,,A,]2 [A,,A,]2 | [A,CF]2 [A,CF]2 [A,CF]2 | [B,DF]6 | C6 | %20
 [A,C]2 [G,CE]2 [F,CF]2 | [G,B,F]2 [G,DF]2 [G,DF]2 | C,6- | C,4 z2 | z C z C z[K:treble] C | %25
 z D C2 z C | z2 .C2 .B,2 | z A,[K:treble] CF C[K:bass]A, | z C z C z C | z _B, z C z B, | %30
 z2 CA, B,D | z A,[K:treble] CF C[K:bass]A, | [_E,A,]2 [E,A,]2 [E,A,]2 | %33
 [_E,A,F]2 [E,A,F]2 [E,A,]2 | [D,_B,]2 D,2 D,2 | ^C,6 | z A, [C,^G,]2 [C,A,]2 | %37
[M:7/8] [C,_B,]2 [C,B,]2 [C,B,]3 |[M:3/4] [F,A,]6- | [F,A,]6 |] %40
V:3
 x6 | x6 | D6- | D6 | x6 | x6 | x6 | x6 | x6 | x6 | x6 | x6 | x6 | x6 | x6 | x6 | x6 | x6 | x6 | %19
 z2 z2 _B,2 | x6 | x6 | x6 | x6 | z E z E z F | z G z E z E | z A, z F z ^F, | x6 | x6 | x6 | %30
 F4 z2 | x6 | x6 | x6 | f2- [_B,Ff-]2 [B,Ff-]2 | [B,Ff]6 | x6 |[M:7/8] x7 |[M:3/4] x6 | x6 |] %40
V:4
 x6 | x6 | x6 | x6 | x6 | x6 | x6 | x6 | x6 | x6 | x6 | x6 | x6 | x6 | x6 | x6 | x6 | x6 | x6 | %19
 x6 | x6 | x6 | x6 | x6 | C,2 _B,2 A,2[K:treble] | G,2 z2 _B,2 | F,6 | F,6[K:treble][K:bass] | %28
 C,2 _B,2 A,2 | G,2 C,2 C,2 | F,6 | F,6[K:treble][K:bass] | x6 | x6 | x6 | x6 | C,2 z2 z2 | %37
[M:7/8] x7 |[M:3/4] x6 | x6 |] %40

